components/Common/Svg/svgs/pwaDevelopment.svg

<svg
  width="90"
  height="90"
  viewBox="0 0 90 90"
  fill="none"
  xmlns="http://www.w3.org/2000/svg"
>
  <circle
    opacity="0.5"
    cx="45"
    cy="45"
    r="45"
    fill="#FFE603"
  ></circle>
  <path
    d="M55 31.25V58.75C55 60.1307 53.8807 61.25 52.5 61.25H37.5C36.1193 61.25 35 60.1307 35 58.75V31.25C35 29.8693 36.1193 28.75 37.5 28.75H52.5C53.8807 28.75 55 29.8693 55 31.25Z"
    stroke="#161616"
    stroke-width="2"
    stroke-linecap="round"
    stroke-linejoin="round"
  ></path>
  <path
    d="M45 53.75C46.0355 53.75 46.875 54.5895 46.875 55.625C46.875 56.6605 46.0355 57.5 45 57.5C43.9645 57.5 43.125 56.6605 43.125 55.625C43.125 54.5895 43.9645 53.75 45 53.75Z"
    fill="#161616"
  ></path>
</svg>

<svg width="90" height="90" viewBox="0 0 90 90" fill="none" xmlns="http://www.w3.org/2000/svg"><circle opacity=".5" cx="45" cy="45" r="45" fill="#FFE603"/><path d="M55 31.25v27.5a2.5 2.5 0 0 1-2.5 2.5h-15a2.5 2.5 0 0 1-2.5-2.5v-27.5a2.5 2.5 0 0 1 2.5-2.5h15a2.5 2.5 0 0 1 2.5 2.5Z" stroke="#161616" stroke-width="2" stroke-linecap="round" stroke-linejoin="round"/><path d="M45 53.75a1.875 1.875 0 1 1 0 3.75 1.875 1.875 0 0 1 0-3.75Z" fill="#161616"/></svg>
